source/img/sprite/crown.svg

<svg width="24" height="24" viewBox="0 0 24 24" fill="none" xmlns="http://www.w3.org/2000/svg">
<path d="M19.2945 21.818H4.70534M22.909 7.75649L19.7177 18.3324H4.28216L1.09082 7.75649L7.3872 11.579L11.9999 2.18164L16.6126 11.579L22.909 7.75649Z" stroke="#0266C1"/>
</svg>

<svg viewBox="0 0 24 24" fill="none" xmlns="http://www.w3.org/2000/svg"><path d="M19.3 21.82h-14.6m18.2-14.06-3.18 10.57h-15.44l-3.19-10.57 6.3 3.82 4.61-9.4 4.61 9.4 6.3-3.82Z" stroke="#0266C1"/></svg>
